src/themes/default/styles/postcss-svg/banks.svg

<svg xmlns="http://www.w3.org/2000/svg" viewBox="0 0 32 32"><g transform="scale(1.33333)"><defs><style>.a{fill:none;stroke:;stroke-linecap:round;stroke-linejoin:round;stroke-width:1.5px}</style></defs><path class="a" d="M4.5 8.161h3v9h-3zM10.5 8.161h3v9h-3zM16.5 8.161h3v9h-3zM21 20.161H3v-2.25a.75.75 0 0 1 .75-.75h16.5a.75.75 0 0 1 .75.75ZM1.5 23.161h21M1.5 20.161h21M21 5.161v2.25a.75.75 0 0 1-.75.75H3.75a.75.75 0 0 1-.75-.75v-2.25L11.665.829a.752.752 0 0 1 .67 0ZM3 5.161h18"/></g></svg>

<svg xmlns="http://www.w3.org/2000/svg" version="1.1" xmlns:xlink="http://www.w3.org/1999/xlink" xmlns:svgjs="http://svgjs.com/svgjs" viewBox="0 0 24 24" width="24" height="24"><g transform="matrix(1,0,0,1,0,0)"><path d="M4.5 8.161H7.5V17.161H4.5z" fill="none" stroke="" stroke-linecap="round" stroke-linejoin="round" stroke-width="1"></path><path d="M10.5 8.161H13.5V17.161H10.5z" fill="none" stroke="" stroke-linecap="round" stroke-linejoin="round" stroke-width="1"></path><path d="M16.5 8.161H19.5V17.161H16.5z" fill="none" stroke="" stroke-linecap="round" stroke-linejoin="round" stroke-width="1"></path><path d="M21,20.161H3v-2.25a.75.75,0,0,1,.75-.75h16.5a.75.75,0,0,1,.75.75Z" fill="none" stroke="" stroke-linecap="round" stroke-linejoin="round" stroke-width="1"></path><path d="M1.5 23.161L22.5 23.161" fill="none" stroke="" stroke-linecap="round" stroke-linejoin="round" stroke-width="1"></path><path d="M1.5 20.161L22.5 20.161" fill="none" stroke="" stroke-linecap="round" stroke-linejoin="round" stroke-width="1"></path><path d="M21,5.161v2.25a.75.75,0,0,1-.75.75H3.75A.75.75,0,0,1,3,7.411V5.161L11.665.829a.752.752,0,0,1,.67,0Z" fill="none" stroke="" stroke-linecap="round" stroke-linejoin="round" stroke-width="1"></path><path d="M3 5.161L21 5.161" fill="none" stroke="" stroke-linecap="round" stroke-linejoin="round" stroke-width="1"></path></g></svg>
